!!!!SEGMENT: pl-sa--68-a-ii-8--007_mrozowski-tadeusz--missa-ex-g-agnus.krn
!!!cenid: 17xx:331
!!!COM: Mrozowski, Tadeusz
!!!COM-rismID: pe30020313
!!!CDT: <1790->1810
!!!CNT:
!!!OPR: Missa ex G
!!!OTL: Agnus
!!!OMV: 007
!!!PDT:
!!!AGN: Sacred; Mass
!!!SMS-siglum: PL-SA
!!!SMS-shelfmark: 68/A II 8
!!!SMS-shelfwork: 001-007 M
!!!SMS-variant:
!!!SMS-altvar:
!!!NIFC-rismSourceID: 1001035348
!!!NIFC-rismChildID: 1001035348
!!!NIFC-islandoraID: none
!!!URL-pdf-islandora:
!!!URL-scan: https://bc.bdsandomierz.pl/dlibra/publication/1339/edition/1307/content @EN{Scan in the Sandomierz Diocese Digital Library} @PL{Skany w portalu Cyfrowa Biblioteka Diecezjalna w Sandomierzu}
!!!IIIF:
!!!ONB-nifc: UWAGA: części Mszy: Kyrie, Gloria, Symphonia post Epistolam, Credo, Tantum Ergo Sacramentum, Sanctus, Agnus, Dona nobis, Presto
!!!OMD: Adagio
!!!AIN: 2 violn 1 vox
!!!key: G
**kern	**dynam	**kern	**dynam	**kern	**kern	**text
*part4	*part4	*part3	*part3	*part2	*part1	*part1
*staff4	*	*staff3	*	*staff2	*staff1	*staff1
*I"Baſso	*	*I"Violino 2do.	*	*I"Violino. Primo.	*I"Canto Solo.	*
*I'b (=bc)	*	*I'vn 2	*	*I'vn 1	*I'S	*
*	*	*Ivioln	*	*Ivioln	*Ivox	*
*	*	*ICstr	*	*ICstr	*ICvox	*
*IGcont	*	*IGacmp	*	*IGacmp	*IGsolo	*
*clefF4	*	*clefG2	*	*clefG2	*clefC1	*
*Trd0c0	*	*	*	*	*	*
*k[f#]	*	*k[f#]	*	*k[f#]	*k[f#]	*
*G:	*	*G:	*	*G:	*G:	*
*M4/4	*	*M4/4	*	*M4/4	*M4/4	*
=1	=1	=1	=1	=1	=1	=1
*2\right	*	*	*	*	*	*
*tremolo	*	*	*	*	*	*
!LO:TX:a:t=Adagio	!	!LO:TX:a:t=Adagio	!	!LO:TX:a:t=Adagio	!LO:TX:a:t=Adagio	!
8G\L	.	4b\	.	4dd\	4dd\	A-
8G\	.	.	.	.	.	.
8G\	.	16b/LL	.	16dd\LL	16dd\LL	-gnus
.	.	16g/	.	16b\	16b\	.
8G\J	.	16a/	.	16cc\	16cc\	.
.	.	16f#/JJ	.	16a\JJ	16a\JJ	.
8G\L	.	8g/L	.	8b'\L	8b\	De-
8G\	.	8g/J	.	8b'\J	8b\	-i
8G\	.	8r	.	8r	8r	.
8G\J	.	8b\	.	8dd\	8ee\	qui
*Xtremolo	*	*	*	*	*	*
=2	=2	=2	=2	=2	=2	=2
8r	.	8cc\L	.	8ee'\L	8ee\L	tol-
8c'\L	.	8cc\J	.	8ee'\J	8ee\J	-lis
8c'\	.	(32cc\LLL	.	32ee\LLL	32ee\LLL	pec-
.	.	32dd\	.	32ff#\	32ff#\	.
.	.	32ee\	.	32gg\	32gg\	-ca-
.	.	32dd\JJJ)	.	32ff#\JJJ	32ff#\JJJ	.
8c'\J	.	(32ff#\LLL	.	(32aa\LLL	32aa\LLL	-ta
.	.	32ee\	.	32gg\	32gg\	.
.	.	32dd\	.	32ff#\	32ff#\	.
.	.	32cc\JJJ)	.	32ee\JJJ)	32ee\JJJ	.
!	!LO:DY:b:t=pp.	!	!	!	!	!
8r	pp	8cc\L	.	8ee'\L	8ee\L	mun-
8G'\L	.	8b\J	.	8dd'\J	8dd\J	-di
8G'\	.	8r	.	8r	8r	.
8G'\J	.	16b\LL	.	16dd\LL	16dd\LL	mi-
.	.	16b\JJ	.	16dd\JJ	16dd\JJ	-se-
=3	=3	=3	=3	=3	=3	=3
8e'\L	.	8cc\L	.	8ee'\L	8ee\L	-re-
8c'\	.	8a\J	.	8cc'\	8cc\J	.
8A'\	.	4r	.	8a'\	8a\L	.
8G'\J	.	.	.	8g'\J	8g\J	-re
8F#'\L	.	8f#/L	.	8f#/L	8f#/L	no-
8D'\J	.	8d/J	.	8d/J	8d/J	-bis
4r	.	8b\L	.	8dd'\L	4r	.
.	.	8b\J	.	8dd'\J	.	.
=4	=4	=4	=4	=4	=4	=4
!	!	!	!	!LO:TX:t=P:problem=takt 4 - repetycja	!	!
!	!	!	!	!	!LO:TX:a:t=5!	!
8G\	.	(16b\LL	.	(16dd\LL	00r	.
.	.	16cc\	.	16ee\	.	.
8r	.	16b\	.	16dd\	.	.
.	.	16a\JJ)	.	16cc\JJ)	.	.
8G'\L	.	8g'/L	.	8b'\L	.	.
8G'\J	.	8g'/J	.	8b'\J	.	.
8D\	.	(16g/LL	.	(16b\LL	.	.
.	.	16a/	.	16cc\	.	.
8r	.	16b/	.	16cc\	.	.
.	.	16g/JJ)	.	16b\JJ)	.	.
8D'\L	.	8.f#'/L	.	8.a/L	.	.
8D'\J	.	.	.	.	.	.
.	.	16d'/Jk	.	16d/Jk	.	.
!LO:LB:g=original	!	!	!	!	!	!
=5	=5	=5	=5	=5	=5	=5
8G'\	.	16b\LL	.	(16dd\LL	.	.
.	.	16cc\	.	16ee\	.	.
8r	.	16b\	.	16dd\	.	.
.	.	16a\JJ	.	16cc\JJ)	.	.
8G'\L	.	8g'/L	.	8b'\L	.	.
8G'\J	.	8g'/J	.	8b'\J	.	.
8D\	.	(16g/LL	.	(16b\LL	.	.
.	.	16a/	.	16cc\	.	.
8r	.	16b/	.	16cc\	.	.
.	.	16g/JJ)	.	16b\JJ)	.	.
8D'\L	.	8.f#'/L	.	8.a/L	.	.
8D'\J	.	.	.	.	.	.
.	.	16d'/Jk	.	16d/Jk	.	.
!	!	!LO:LB:g=original	!	!	!	!
=6	=6	=6	=6	=6	=6	=6
*tremolo	*	*	*	*	*	*
8G\L	.	16a\LL	.	16dd\LL	.	.
.	.	16cc\	.	16ee\	.	.
8G\	.	16b\	.	16dd\	.	.
.	.	16a\JJ	.	16cc'\JJ	.	.
!	!	!LO:TX:t=P:problem=mixed beam	!	!	!	!
8G\	.	8g/L	.	8b'\L	.	.
8G\J	.	8ee\J	.	8gg'\J	.	.
*Xtremolo	*	*	*	*	*	*
4G\	.	16ee\LL	.	(16gg\LL	.	.
.	.	16dd\	.	16ff#\	.	.
.	.	16dd\	.	16ff#\	.	.
.	.	16cc\JJ	.	16ee\JJ)	.	.
4r	.	(16cc\LL	.	(16ee\LL	.	.
.	.	16b\	.	16dd\	.	.
.	.	16b\	.	16dd\	.	.
.	.	16a\JJ)	.	16cc\JJ)	.	.
=7	=7	=7	=7	=7	=7	=7
*	*	*^	*	*	*	*
*tremolo	*	*tremolo	*tremolo	*	*	*	*
8F#\L	.	8a/L	8f#\L	.	(16cc\LL	.	.
.	.	.	.	.	16a\J)	.	.
8F#\	.	8a/	8f#\	.	8ee'\J	.	.
8F#\	.	8a/	8f#\	.	(16ee\LL	.	.
.	.	.	.	.	16cc\	.	.
8F#\J	.	8a/J	8f#\J	.	16b\	.	.
.	.	.	.	.	16a\JJ)	.	.
8G\L	.	8b/L	8g\L	.	(16b\LL	.	.
.	.	.	.	.	16g\J)	.	.
8G\	.	8b/	8g\	.	8dd'\J	.	.
!	!	!	!	!	!LO:LB:g=original	!	!
=-	=-	=-	=-	=-	=-	=-	=-
8G\	.	8b/	8g\	.	16dd\LL	.	.
.	.	.	.	.	16b\	.	.
8G\J	.	8b/J	8g\J	.	16a\	.	.
.	.	.	.	.	16g\JJ	.	.
*Xtremolo	*	*Xtremolo	*Xtremolo	*	*	*	*
*	*	*v	*v	*	*	*	*
=8	=8	=8	=8	=8	=8	=8
!	!LO:DY:b:t=forte	!	!	!	!	!
8C|</L	f	8e/L	.	16e/LL	1r	.
.	.	.	.	32cc/L	.	.
.	.	.	.	32b/JJJ	.	.
8AA|</J	.	8c/	.	32dd\LLL	.	.
.	.	.	.	32cc\	.	.
.	.	.	.	32b\	.	.
.	.	.	.	32a\JJJ	.	.
!LO:TX:t=P:problem=mixed beam	!	!	!	!	!	!
8D|>\L	.	8d/	.	8g'/L	.	.
8DD|</J	.	8f#/J	.	8f#/J	.	.
8G|>\L	.	8g/L	.	8g/L	.	.
8D|>\J	.	8d/J	.	8d/J	.	.
4GG|</	.	4G/	.	4G/	.	.
!	!	!	!	!	!LO:LB:g=original	!
=9	=9	=9	=9	=9	=9	=9
8r	.	8.b\L	.	(8.dd\L	8.dd\L	a-
8G'\L	.	.	.	.	.	.
.	.	16cc\Jk	.	16ee\Jk)	16ee\Jk	.
8G'\	.	16b\LL	.	16dd\LL	16dd\LL	.
.	.	16ee\	.	16gg\	16gg\	.
8G'\J	.	16dd\	.	16ff#\	16ff#\	-gnus
.	.	16cc\JJ	.	16ee\JJ	16ee\JJ	.
!LO:PB:g=original	!	!	!	!	!	!
=-	=-	=-	=-	=-	=-	=-
8r	.	16cc\LL	.	16ee\LL	16ee\LL	.
.	.	16b\J	.	16dd\J	16dd\J	de-
8G'\L	.	8b\J	.	8ddT\J	8dd\J	-i
8G'\	.	16b\LL	.	16dd\LL	4r	.
.	.	16gg\	.	16bb\	.	.
8G'\J	.	16ff#\	.	16aa\	.	.
.	.	16ee\JJ	.	16gg\JJ	.	.
=10	=10	=10	=10	=10	=10	=10
4G\	.	(16ee\LL	.	(16gg\LL	16gg\LL	qui
.	.	16ee\	.	16ff#\	16ff#\	.
.	.	16ee\	.	16ff#\	16ff#\	tol-
.	.	16cc\JJ)	.	16ee\JJ)	16ee\JJ	-lis
4r	.	(16cc\LL	.	(16ee\LL	16ee\LL	.
.	.	16b\	.	16dd\	16dd\	.
.	.	16b\	.	16dd\	16dd\	pec-
.	.	16a\JJ)	.	16cc\JJ)	16cc\JJ	-ca-
(8F#\L	.	8a/L	.	8cc'\L	8cc\L	.
8G\)J	.	8g/J	.	8b'\J	8b\J	-ta
8G'\L	.	8r	.	8r	8r	.
8G'\J	.	16b\LL	.	(16dd\LL	16dd\LL	pec-
.	.	16g\JJ	.	16b\JJ)	16b\JJ	.
=11	=11	=11	=11	=11	=11	=11
8r	.	8g/L	.	8b'\L	8b\L	-ca-
8D\L	.	8f#/J	.	8a'\J	8a\J	-ta
8D\	.	8r	.	8r	8r	.
8D\J	.	16cc\LL	.	(16ee\LL	16ee\LL	mun-
.	.	16a\JJ	.	16cc\JJ)	16cc\JJ	.
8r	.	8a/L	.	8cc'\L	8cc\L	.
8G\L	.	8g/J	.	8b'\J	8b\J	-di
8G\	.	8r	.	8r	8r	.
8G\J	.	16b\LL	.	16dd'\LL	16dd\LL	mi-
.	.	16b\JJ	.	16dd'\JJ	16dd\JJ	-se-
!	!	!LO:LB:g=original	!	!	!	!
=12	=12	=12	=12	=12	=12	=12
4G\	.	8b/L	.	8gg'\L	8gg\L	-re-
.	.	8b/	.	8dd'\	8dd\	.
4r	.	8a/	.	8cc'\	8cc\	.
.	.	8g/J	.	8b'\J	8cc\J	-re
4r	.	8g/L	.	8b'\L	8cc\L	no-
.	.	8f#/J	.	8a'\J	8b\J	-bis
16r	.	16r	.	16r	4r	.
16D'\LL	.	16d/LL	.	16d/LL	.	.
16F#'\	.	16f#/	.	16f#/	.	.
16A'\JJ	.	16a/JJ	.	16a/JJ	.	.
!	!	!	!	!	!LO:LB:g=original	!
=13	=13	=13	=13	=13	=13	=13
*	*	*tremolo	*	*	*	*
!	!	!	!	!LO:TX:t=P:problem=takt 13-14 - repetycja	!	!
!	!	!	!LO:DY:b:t=for.	!	!LO:TX:a:t=4	!
8F#'\L	.	16a/LL	f	32cc\LLL	00r	.
.	.	.	.	32dd\	.	.
.	.	16f#/	.	32cc\	.	.
.	.	.	.	32b\JJJ	.	.
8F#'\J	.	16a/	.	32cc\LLL	.	.
.	.	.	.	32dd\	.	.
.	.	16f#/	.	32cc\	.	.
.	.	.	.	32b\JJJ	.	.
8F#'\	.	16a/	.	16cc\LL	.	.
.	.	16f#/	.	16aa\	.	.
8r	.	16a/	.	16ff#\	.	.
.	.	16f#/JJ	.	16cc\JJ	.	.
8G'\L	.	16b/LL	.	(32b\LLL	.	.
.	.	.	.	32cc\	.	.
.	.	16g/	.	32b\	.	.
.	.	.	.	32a\JJJ)	.	.
8G'\J	.	16b/	.	(32b\LLL	.	.
.	.	.	.	32cc\	.	.
.	.	16g/	.	32b\	.	.
.	.	.	.	32a\JJJ)	.	.
!	!	!	!	!LO:LB:g=original	!	!
=-	=-	=-	=-	=-	=-	=-
8G'\	.	16b/	.	16b\LL	.	.
.	.	16g/	.	16gg\	.	.
8r	.	16b/	.	16dd\	.	.
.	.	16g/JJ	.	16b\JJ	.	.
*	*	*Xtremolo	*	*	*	*
!LO:LB:g=original	!	!	!	!	!	!
=14	=14	=14	=14	=14	=14	=14
*tremolo	*	*	*	*	*	*
8D\L	.	16f#/LL	.	16a\LL	.	.
.	.	16a/	.	16cc\	.	.
8D\	.	16a/	.	16cc\	.	.
.	.	16cc/JJ	.	16ee\JJ	.	.
!	!	!LO:TX:t=P:problem=mixed beam	!	!	!	!
8D\	.	8b\L	.	8dd/L	.	.
8D\J	.	8A/J	.	8f#/J	.	.
*Xtremolo	*	*	*	*	*	*
16G|>\LL	.	16c/LL	.	16a/LL	.	.
16G|>\	.	16B/	.	16g/	.	.
16B|>\	.	16A/	.	16f#/	.	.
16d|>\JJ	.	16B/JJ	.	16g/JJ	.	.
16c|>\LL	.	4B/	.	4g/	.	.
16B|>\	.	.	.	.	.	.
16A|>\	.	.	.	.	.	.
16G|>\JJ	.	.	.	.	.	.
=15	=15	=15	=15	=15	=15	=15
*	*	*tremolo	*	*	*	*
16F#|>\LL	.	16g/LL	.	32cc\LLL	.	.
.	.	.	.	32dd\	.	.
16D|>\	.	16e/	.	32cc\	.	.
.	.	.	.	32b\JJJ	.	.
16F#|>\	.	16g/	.	32cc\LLL	.	.
.	.	.	.	32dd\	.	.
16D|>\JJ	.	16e/	.	32cc\	.	.
.	.	.	.	32b\JJJ	.	.
16F#|>\LL	.	16g/	.	16cc\LL	.	.
16D|>\	.	16e/	.	16aa\	.	.
16F#|>\	.	16g/	.	16ff#\	.	.
16D|>\JJ	.	16e/JJ	.	16cc\JJ	.	.
16G'\LL	.	16a/LL	.	(32b\LLL	.	.
.	.	.	.	32cc\	.	.
16D'\	.	16f#/	.	32b\	.	.
.	.	.	.	32a\JJJ)	.	.
16G'\	.	16a/	.	(32b\LLL	.	.
.	.	.	.	32cc\	.	.
16D'\JJ	.	16f#/	.	32b\	.	.
.	.	.	.	32a\JJJ)	.	.
16G'\LL	.	16a/	.	16b\LL	.	.
16D'\	.	16f#/	.	16gg\	.	.
16G'\	.	16a/	.	16dd\	.	.
16D'\JJ	.	16f#/JJ	.	16b\JJ	.	.
*	*	*Xtremolo	*	*	*	*
=16	=16	=16	=16	=16	=16	=16
*tremolo	*	*	*	*	*	*
8D\L	.	16f#/LL	.	16a\LL	.	.
.	.	16a/	.	16cc\	.	.
8D\	.	16a/	.	16cc\	.	.
.	.	16cc/JJ	.	16ee\JJ	.	.
!	!	!LO:TX:t=P:problem=mixed beam	!	!	!	!
8D\	.	8b\L	.	8dd/L	.	.
8D\J	.	8A/J	.	8f#/J	.	.
*Xtremolo	*	*	*	*	*	*
8G\L	.	16c/LL	.	16a/LL	.	.
.	.	16B/	.	16g/	.	.
8D\J	.	16A/	.	16f#/	.	.
.	.	16B/JJ	.	16g/JJ	.	.
4GG/	.	4B/	.	4g/	.	.
=17	=17	=17	=17	=17	=17	=17
*tremolo	*	*	*	*	*	*
!	!LO:DY:b:t=pp.	!	!LO:DY:b	!	!	!
8G\L	pp	8b/L	pp	(8dd\L	8dd\L	a-
8G\	.	8b/J	.	8gg\J)	8gg\J	-gnus
8G\	.	8g/L	.	(8b\L	8b\L	de-
8G\J	.	8a/J	.	8dd\J)	8dd\J	-i
8F#\L	.	8a/L	.	(8cc\L	8cc\L	qui-
8F#\	.	8a/J	.	8ee\J)	8ee\J	.
8F#\	.	8f#/L	.	(8a\L	8a\L	-tol-
8F#\J	.	8a/J	.	8cc\J)	8cc\J	-lis
!	!	!LO:LB:g=original	!	!	!	!
=18	=18	=18	=18	=18	=18	=18
8G\L	.	8g/L	.	(8b\L	8b\L	pec-
8G\	.	8b/J	.	8dd\J)	8dd\J	.
8G\	.	8B/L	.	(8g/L	8g\L	-ca-
8G\J	.	8g/J	.	8b/J)	8b\J	-ta
8D\L	.	8g/L	.	8b'/L	8b\L	mun-
8D\	.	8f#/J	.	8a'/J	8a\J	-di
8D\	.	8r	.	8r	8r	.
8D\J	.	16b\LL	.	16gg'\LL	16gg\LL	do-
.	.	16b\JJ	.	16gg'\JJ	16gg\JJ	-na
*Xtremolo	*	*	*	*	*	*
=19	=19	=19	=19	=19	=19	=19
4G\	.	8b'\L	.	8gg\L	8gg\L	no-
.	.	8b'\	.	8dd\	8dd\	.
4r	.	(8cc\	.	8ee\	8ee\	.
.	.	8b\J)	.	8dd\J	8dd\J	-bis
!LO:LB:g=original	!	!	!	!	!	!
=-	=-	=-	=-	=-	=-	=-
16r	.	8a'/L	.	8cc'\L	8cc\L	pa-
16D|>\LL	.	.	.	.	.	.
16F#|>\	.	8a'/J	.	8cc'\J	8cc\J	-cem
16A|>\JJ	.	.	.	.	.	.
4c\	.	8r	.	8r	8r	.
.	.	16cc\LL	.	16aa'\LL	16aa\LL	do-
.	.	16cc\JJ	.	16aa'\JJ	16aa\JJ	-na
=20	=20	=20	=20	=20	=20	=20
4F#\	.	8cc\L	.	8aa\L	8aa\L	.
.	.	8a\	.	8cc\	8cc\	no-
4r	.	8b\	.	8dd\	8dd\	.
.	.	8a\J	.	8cc\J	8cc\J	-bis
16r	.	16g/LL	.	16b\LL	16b\LL	.
16GG|</LL	.	16f#/J	.	16a\J	16a\J	pa-
16BB|</	.	8g/J	.	8b\J	8b\J	-cem
16D|</JJ	.	.	.	.	.	.
4G\	.	8r	.	8r	8r	.
!	!	!	!	!	!LO:LB:g=original	!
=-	=-	=-	=-	=-	=-	=-
.	.	16b\LL	.	16gg'\LL	16gg\LL	do-
.	.	16b\JJ	.	16gg'\JJ	16gg\JJ	-na
=21	=21	=21	=21	=21	=21	=21
*tremolo	*	*	*	*	*	*
8G\L	.	16b\LL	.	(16gg\LL	16gg\LL	no-
.	.	16dd\	.	16ff#\	16ff#\	.
8G\	.	16cc\	.	16ee\	16ee\	-bis
.	.	16b\JJ	.	16dd\JJ)	16dd\JJ	.
8G\	.	(16b\LL	.	(16dd\LL	16dd\LL	pa-
.	.	16cc\)	.	16ee\)	16ee\	.
8G\J	.	(16f#\	.	(16a\	16a\	.
.	.	16a\JJ)	.	16cc\JJ)	16cc\JJ	.
8G\L	.	8a/L	.	8cc\L	8cc\L	.
8G\	.	8g/J	.	8b\J	8b\J	-cem
8G\	.	8r	.	8r	8r	.
8G\J	.	16b\LL	.	16gg'\LL	16gg\LL	do-
.	.	16b\JJ	.	16gg'\JJ	16gg\JJ	-na
=22	=22	=22	=22	=22	=22	=22
8G\L	.	16b\LL	.	16gg\LL	16gg\LL	no-
.	.	16dd\	.	16ff#\	16ff#\	.
8G\	.	16cc\	.	16ee\	16ee\	-bis
.	.	16b\JJ	.	16dd\JJ	16dd\JJ	.
8G\	.	(16b\LL	.	16dd\LL	16dd\LL	pa-
.	.	16cc\	.	16ee\	16ee\	.
8G\J	.	16f#\	.	16a\	16a\	.
*Xtremolo	*	*	*	*	*	*
.	.	16a\JJ)	.	16cc\JJ	16cc\JJ	.
8F#\L	.	8a/L	.	8cc\L	8cc\L	.
8G;>\J	.	8g/J	.	8b;>\J	8b;>\J	-cem
!	!	!	!	!LO:TX:a:t=22.	!LO:TX:a:t=22	!
4r	.	4r;>	.	4r	4r	.
!LO:LB:g=original	!	!LO:LB:g=original	!	!LO:LB:g=original	!	!
==	==	==	==	==	==	==
*-	*-	*-	*-	*-	*-	*-
!!!system-decoration: s1[(s2,s3,s4)]
!!!RDF**kern: < = below
!!!RDF**kern: > = above
!!!RDF**kern: | = vertical stroke
!!!ENC: Andrzej Gręziak
!!!END: 2020-04-25
!!!ENC: Marta Chmielewska
!!!END: 2021-12-31
!!!YEC: Copyright 2022 Narodowy Instytut Fryderyka Chopina (https://polishscores.org)
!!!YEM: License CC-BY-4.0 (https://creativecommons.org/licenses/by/4.0)
